X: 18553
T: I Have Two Yellow Goats
R: polka
M: 2/4
K: Gmajor
|:E|DE GA|B2 AG|BA AG/A/|BA Ad|
DE GA|B2 AB/A/|GE ED/E/|GE E-:|
|:d|ed eg|d2 cA|BA AG/A/|BA Ad|
ed e/f/g|d2 cA|BG GG/A/|BG G:|

